X:125
T: HOERT IHR WIE SCHOEN HEUT DER POSTILLON BLAESET
N: B0615
O: Europa, Mitteleuropa, Deutschland
R: Staende - Lied, Postillon
M: 3/8
L: 1/16
K: C
 | C2E2G2 | c2G2E2 | G3GG2 | c2G2
E2 | C2E2G2 | c2G2E2 | G3GG2 | c4z2 | G3GG2 | c4z2 |
c3cc2 | G3GG2 | E3EE2 | C4z2 |
C6 | C6 | C6

@@@ Tune index: 2343
